icon-themes/sifr_svg/cmd/sc_zoompanning.svg

<svg viewBox="0 0 16 16" xmlns="http://www.w3.org/2000/svg"><path d="m8 1-3.03125 3h2.0625v3c-1.00788-.008-2.02326-.02335-3.03125-.03125v-1.96875l-3 3 3 3v-2.03125c1.01043.003 2.02083-.002 3.03125 0v2 1.03125h-2.0625l3.03125 3 2.96875-3h-1.96875v-1.03125-2c.9999998.00064 2.00001.004 3 0v2.03125l2-2.03125 1-.96875-1-1v-.03125c-.0104.00027-.02095-.00027-.03125 0l-1.96875-1.96875v2c-1.00417.0117-1.99566.003-3 0v-3h1.96875z" fill="#555753"/></svg>

<svg xmlns="http://www.w3.org/2000/svg" viewBox="0 0 16 16">
 <path
     style="fill:#555753"
     d="M 8 1 L 4.96875 4 L 7.03125 4 L 7.03125 7 C 6.02337 6.992 5.00799 6.97665 4 6.96875 L 4 5 L 1 8 L 4 11 L 4 8.96875 C 5.01043 8.97175 6.02083 8.96675 7.03125 8.96875 L 7.03125 10.96875 L 7.03125 12 L 4.96875 12 L 8 15 L 10.96875 12 L 9 12 L 9 10.96875 L 9 8.96875 C 9.9999998 8.96939 11.00001 8.97275 12 8.96875 L 12 11 L 14 8.96875 L 15 8 L 14 7 L 14 6.96875 C 13.9896 6.96902 13.97905 6.96848 13.96875 6.96875 L 12 5 L 12 7 C 10.99583 7.0117 10.00434 7.003 9 7 L 9 4 L 10.96875 4 L 8 1 z "
     />
 </svg>
